Suru++-Ubuntu/actions/16/mail-archive.svg

<svg xmlns="http://www.w3.org/2000/svg" width="16" height="16" version="1.1">
 <g transform="matrix(1.25,0,0,1.2444749,-1543.25,390.58694)" style="fill:#808080">
  <path d="m4 2h-0.5c-0.83 0-1.5 0.669-1.5 1.5v9c0 0.831 0.67 1.5 1.5 1.5h9c0.831 0 1.5-0.669 1.5-1.5v-9c0-0.831-0.669-1.5-1.5-1.5h-0.5v1c0.554 0 1 0.446 1 1v6h-3c0 1.108-0.892 2-2 2s-2-0.892-2-2h-3v-6c0-0.554 0.446-1 1-1z" transform="translate(1233,-315)" style="fill:#808080"/>
 </g>
 <path d="m3.7141798-0.0714191v1.0666851h8.5713662v-1.0666851zm0 2.1333701v1.0666848h8.5713662v-1.0666848zm0 2.1333699v5.3334251h8.5713662v-5.3334251zm1.0714198 1.0666851 3.2142624 1.6000276 3.212175-1.6000276v1.0666855l-3.212175 1.6000275-3.2142624-1.6000275z" style="fill:#808080"/>
</svg>

<svg xmlns="http://www.w3.org/2000/svg" width="16" height="16" version="1.1">
 <g transform="matrix(1.25,0,0,1.2444749,-1543.25,390.58694)" style="fill:#4d4d4d">
  <path style="fill:#4d4d4d" d="M 4,2 H 3.5 C 2.67,2 2,2.669 2,3.5 v 9 C 2,13.331 2.67,14 3.5,14 h 9 c 0.831,0 1.5,-0.669 1.5,-1.5 v -9 C 14,2.669 13.331,2 12.5,2 H 12 v 1 c 0.554,0 1,0.446 1,1 v 6 H 10 C 10,11.108 9.108,12 8,12 6.892,12 6,11.108 6,10 H 3 V 4 C 3,3.446 3.446,3 4,3 Z" transform="translate(1233,-315)"/>
 </g>
 <path d="M 3.7141798,-0.0714191 V 0.995266 h 1.0714198 6.4264374 1.073509 v -1.0666851 z m 0,2.1333701 v 1.0666848 h 1.0714198 6.4264374 1.073509 V 2.061951 Z m 0,2.1333699 V 9.528746 H 12.285546 V 4.1953209 Z M 4.7855996,5.262006 7.999862,6.8620336 11.212037,5.262006 V 6.3286915 L 7.999862,7.928719 4.7855996,6.3286915 Z" style="fill:#4d4d4d"/>
</svg>
